packages/common/src/components/Preview/Navigator/horizontal-align.svg

<svg width="12" height="12" viewBox="0 0 12 12" fill="none" xmlns="http://www.w3.org/2000/svg">
<path d="M1.5 1.5V7.5H10.5V1.5H1.5ZM1 0H11C11.5523 0 12 0.447715 12 1V11C12 11.5523 11.5523 12 11 12H1C0.447715 12 0 11.5523 0 11V1C0 0.447715 0.447715 0 1 0Z" fill="black"/>
</svg>

<svg width="12" height="12" fill="none" xmlns="http://www.w3.org/2000/svg"><path d="M1.5 1.5v6h9v-6h-9zM1 0h10a1 1 0 011 1v10a1 1 0 01-1 1H1a1 1 0 01-1-1V1a1 1 0 011-1z" fill="#000"/></svg>
